icons/physical_therapy.svg

<svg width="48" height="48" viewBox="0 0 48 48" fill="none" xmlns="http://www.w3.org/2000/svg">
<path fill-rule="evenodd" clip-rule="evenodd" d="M39 8H9C8.44771 8 8 8.44772 8 9V39C8 39.5523 8.44772 40 9 40H39C39.5523 40 40 39.5523 40 39V9C40 8.44771 39.5523 8 39 8ZM9 6C7.34315 6 6 7.34315 6 9V39C6 40.6569 7.34315 42 9 42H39C40.6569 42 42 40.6569 42 39V9C42 7.34315 40.6569 6 39 6H9Z" fill="black"/>
<path fill-rule="evenodd" clip-rule="evenodd" d="M31.4765 13.7461C31.4765 15.815 29.7994 17.4922 27.7304 17.4922C25.6615 17.4922 23.9844 15.815 23.9844 13.7461C23.9844 11.6772 25.6615 10 27.7304 10C29.7994 10 31.4765 11.6772 31.4765 13.7461ZM14 30H19.828L24.222 34.3356L26.2879 39.0997C26.7274 40.1131 27.9052 40.5783 28.9185 40.1389C29.9319 39.6994 30.3972 38.5216 29.9577 37.5083L27.7375 32.3885C27.6357 32.1536 27.4896 31.9405 27.3074 31.7606L25.523 30H34C35.1046 30 36 30.8954 36 32V40H38V32C38 29.7909 36.2091 28 34 28H30.8725C31.7344 27.794 32.3842 27.0286 32.4056 26.1009C32.4312 24.9967 31.5568 24.0807 30.4525 24.0551C28.6983 24.0145 28.1719 23.7225 27.7954 23.3836C27.5416 23.1551 27.2589 22.8076 26.8671 22.2061C26.5854 21.7736 26.2951 21.2871 25.9387 20.69L25.9385 20.6896L25.9383 20.6893C25.7874 20.4364 25.6246 20.1637 25.4457 19.8668L25.4032 19.7962C25.2794 19.59 25.1186 19.3222 24.9572 19.1048C24.7624 18.8423 24.4007 18.4146 23.7948 18.1625C23.186 17.9091 22.6214 17.9531 22.2724 18.0079C21.9411 18.0599 21.5836 18.1618 21.2917 18.2456L21.2917 18.2456C20.4238 18.4948 19.701 19.154 19.2274 19.669C18.6829 20.2611 18.1547 21.0107 17.7273 21.8378C16.922 23.3961 16.2217 25.7508 17.214 27.9481C17.2219 27.9656 17.23 27.9829 17.2383 28H14C11.7909 28 10 29.7909 10 32V40H12V32C12 30.8954 12.8954 30 14 30ZM29.3301 28H23.4961L22.5404 27.0569L24.0533 25.1658C24.3712 25.5922 24.7195 25.9967 25.1195 26.3567C26.2938 27.4136 27.6485 27.8544 29.3301 28ZM16.8723 30.0868L20.1482 33.2289L19.3193 36.0258C19.2687 36.1969 19.1953 36.3604 19.1013 36.5119L17.3354 39.3582C16.753 40.2968 15.5201 40.5856 14.5815 40.0033C13.6429 39.421 13.3541 38.188 13.9364 37.2494L15.5606 34.6316L16.6637 30.9091L16.8723 30.0868Z" fill="black"/>
</svg>

<svg
  xmlns="http://www.w3.org/2000/svg"
  width="24"
  height="24"
  viewBox="0 0 24 24"
  fill="none"
  stroke="currentColor"
  stroke-width="2"
  stroke-linecap="round"
  stroke-linejoin="round"
>
  <path
    fill-rule="evenodd"
    d="M39 8H9a1 1 0 0 0-1 1v30a1 1 0 0 0 1 1h30a1 1 0 0 0 1-1V9a1 1 0 0 0-1-1M9 6a3 3 0 0 0-3 3v30a3 3 0 0 0 3 3h30a3 3 0 0 0 3-3V9a3 3 0 0 0-3-3z"
    clip-rule="evenodd"
  />
  <path
    fill-rule="evenodd"
    d="M31.477 13.746a3.746 3.746 0 1 1-7.493 0 3.746 3.746 0 0 1 7.493 0M14 30h5.828l4.394 4.336 2.066 4.764a2 2 0 0 0 3.67-1.592l-2.22-5.12a2 2 0 0 0-.43-.627L25.522 30H34a2 2 0 0 1 2 2v8h2v-8a4 4 0 0 0-4-4h-3.128a2 2 0 0 0-.42-3.945c-1.754-.04-2.28-.332-2.657-.671-.253-.229-.536-.576-.928-1.178-.282-.432-.572-.919-.928-1.516l-.493-.823-.043-.07a9 9 0 0 0-.446-.692c-.195-.263-.556-.69-1.162-.942-.609-.254-1.174-.21-1.523-.155a9 9 0 0 0-.98.238c-.868.249-1.591.908-2.065 1.423a10 10 0 0 0-1.5 2.169c-.805 1.558-1.505 3.913-.513 6.11l.024.052H14a4 4 0 0 0-4 4v8h2v-8a2 2 0 0 1 2-2m15.33-2h-5.834l-.956-.943 1.513-1.891c.318.426.666.83 1.066 1.19 1.175 1.058 2.53 1.498 4.211 1.644m-12.458 2.087 3.276 3.142-.829 2.797q-.076.257-.218.486l-1.766 2.846a2 2 0 0 1-3.399-2.109l1.625-2.617 1.103-3.723z"
    clip-rule="evenodd"
  />
</svg>
